packages/dnb-ui-lib/assets/icons/graph_decrease_medium.svg

<svg width="24" height="24" viewBox="0 0 24 24" fill="none" xmlns="http://www.w3.org/2000/svg">
<path d="M23.2498 23.25H21.7498M0.749994 23.25H2.24998M4.49997 0.750177L20.5678 8.04712M20.5678 8.04712L19.3739 4.86615M20.5678 8.04712L17.3869 9.24111M2.24998 23.25V10.5001C2.24998 10.3012 2.329 10.1104 2.46965 9.96978C2.6103 9.82913 2.80107 9.75011 2.99998 9.75011H5.99995C6.19887 9.75011 6.38963 9.82913 6.53028 9.96978C6.67093 10.1104 6.74995 10.3012 6.74995 10.5001V23.25M2.24998 23.25H6.74995M6.74995 23.25H9.74993M9.74993 23.25V13.5001C9.74993 13.3012 9.82894 13.1104 9.96959 12.9698C10.1102 12.8291 10.301 12.7501 10.4999 12.7501H13.4999C13.6988 12.7501 13.8896 12.8291 14.0302 12.9698C14.1709 13.1104 14.2499 13.3012 14.2499 13.5001V23.25M9.74993 23.25H14.2499M14.2499 23.25H17.2499M17.2499 23.25V18C17.2499 17.8011 17.3289 17.6104 17.4695 17.4697C17.6102 17.3291 17.801 17.2501 17.9999 17.2501H20.9998C21.1988 17.2501 21.3895 17.3291 21.5302 17.4697C21.6708 17.6104 21.7498 17.8011 21.7498 18V23.25M17.2499 23.25H21.7498" stroke="black" stroke-width="1.5" stroke-linecap="round" stroke-linejoin="round"/>
</svg>

<svg width="24" height="24" viewBox="0 0 24 24" fill="none" xmlns="http://www.w3.org/2000/svg"><path d="M23.25 23.25h-1.5m-21 0h1.5M4.5.75l16.068 7.297m0 0l-1.194-3.18m1.194 3.18l-3.181 1.194M2.25 23.25V10.5A.75.75 0 013 9.75h3a.75.75 0 01.75.75v12.75m-4.5 0h4.5m0 0h3m0 0V13.5a.75.75 0 01.75-.75h3a.75.75 0 01.75.75v9.75m-4.5 0h4.5m0 0h3m0 0V18a.75.75 0 01.75-.75h3a.75.75 0 01.75.75v5.25m-4.5 0h4.5" stroke="#000" stroke-width="1.5" stroke-linecap="round" stroke-linejoin="round"/></svg>
